source/assets/images/mask-tr.svg

<svg xmlns="http://www.w3.org/2000/svg" xmlns:xlink="http://www.w3.org/1999/xlink" preserveAspectRatio="xMidYMid" width="40" height="40" viewBox="0 0 40 40">
  <defs>
    <style>
      .cls-1 {
        fill: #d4d4d4;
      }

      .cls-1, .cls-2, .cls-3 {
        fill-rule: evenodd;
      }

      .cls-2 {
        fill: #ebebeb;
      }

      .cls-3 {
        fill: #fff;
      }
    </style>
  </defs>
  <g>
    <path d="M-0.000,32.000 L-0.000,16.000 L9.000,16.000 L18.000,24.000 L9.000,32.000 L4.000,36.000 L-0.000,32.000 Z" class="cls-1"/>
    <path d="M8.000,40.000 L24.000,40.000 L24.000,31.000 L17.000,23.000 L4.000,36.000 L8.000,40.000 Z" class="cls-2"/>
    <path d="M24.000,32.000 L16.000,24.000 L9.607,30.393 C9.607,30.393 9.607,30.393 9.607,30.393 L16.000,24.000 L8.000,16.000 L0.000,16.000 C0.000,7.498 0.000,0.000 0.000,0.000 L24.000,0.000 L40.000,16.000 L40.000,40.000 C40.000,40.000 32.503,40.000 24.000,40.000 L24.000,32.000 Z" class="cls-3"/>
  </g>
</svg>

<svg xmlns="http://www.w3.org/2000/svg" preserveAspectRatio="xMidYMid" width="40" height="40" viewBox="0 0 40 40"><defs><style>.cls-1{fill:#d4d4d4}.cls-1,.cls-2,.cls-3{fill-rule:evenodd}.cls-2{fill:#ebebeb}.cls-3{fill:#fff}</style></defs><path d="M0 32V16h9l9 8-9 8-5 4-4-4z" class="cls-1"/><path d="M8 40h16v-9l-7-8L4 36l4 4z" class="cls-2"/><path d="M24 32l-8-8-6.393 6.393L16 24l-8-8H0V0h24l16 16v24H24v-8z" class="cls-3"/></svg>
